X:102
T: Zaldotemarsch vum Jgerbataillon 1860 (1-27), S. 72
N: K1076
O: Luxemburg
S: KINTZELE, Guillaume: An der Ucht, Bd. 1, Luxemburg 1926]
N: in der Quelle mit einer 2. Stimme versehen
R: Trennung, Abschied]
M: 3/4
L: 1/16
K: F
FFAA | c4c3cB2d2 | c2B2A2z2
FFAA | c4c3cB2d2 | c2B2A2
FFF2A2 | c2f2f2ffe2dd | c2A2F2
c2d2c2 | e3de2d2c3B | A4z2
FFF2A2 | c2f2f2ffe2dd | c2A2F2
c2d2c2 | e3de2d2c3B | A4z4

@@@ Tune index: 8156
